X:18828
T:Windbroke
M:4/4
L:1/8
C:Michael McGoldrick
R:reel
D:Lúnasa: The Merry Sisters of Fate
Z:Devin McCabe
K:EMin
B~E3 GABE- | EGAd B2AG | B~E3 GABc- | cBAG ABAG |
!B~E3 GABE- | EGAd B2AB | edde B2AG | A3G FGAc ::
!Begf efde- | eedf e3d | Begf efga- | aa2g fede |
!Begf efde- | eedf e3B | c3A B3G | A3G FGAc :|


